packages/assets/static/images/icons/unlock.svg

<svg width="24" height="24" viewBox="0 0 24 24" xmlns="http://www.w3.org/2000/svg" fill="currentColor" aria-hidden="true"> <path d="M20 7.125H9.875V5.25C9.875 4.55381 10.1516 3.88613 10.6438 3.39384C11.1361 2.90156 11.8038 2.625 12.5 2.625C13.7666 2.625 14.9047 3.52688 15.1475 4.72406C15.1769 4.86884 15.2346 5.00641 15.3172 5.12892C15.3998 5.25142 15.5057 5.35645 15.6289 5.43802C15.752 5.51959 15.8901 5.5761 16.0351 5.60432C16.1801 5.63254 16.3293 5.63192 16.4741 5.6025C16.6188 5.57308 16.7564 5.51542 16.8789 5.43283C17.0014 5.35024 17.1065 5.24433 17.188 5.12115C17.2696 4.99797 17.3261 4.85992 17.3543 4.7149C17.3825 4.56988 17.3819 4.42072 17.3525 4.27594C16.8941 2.01562 14.8531 0.375 12.5 0.375C11.2075 0.376489 9.96842 0.890581 9.0545 1.8045C8.14058 2.71842 7.62649 3.95753 7.625 5.25V7.125H5C4.50272 7.125 4.02581 7.32254 3.67417 7.67417C3.32254 8.02581 3.125 8.50272 3.125 9V19.5C3.125 19.9973 3.32254 20.4742 3.67417 20.8258C4.02581 21.1775 4.50272 21.375 5 21.375H20C20.4973 21.375 20.9742 21.1775 21.3258 20.8258C21.6775 20.4742 21.875 19.9973 21.875 19.5V9C21.875 8.50272 21.6775 8.02581 21.3258 7.67417C20.9742 7.32254 20.4973 7.125 20 7.125ZM19.625 19.125H5.375V9.375H19.625V19.125Z"/> </svg>

<svg viewBox="0 0 24 24" xmlns="http://www.w3.org/2000/svg" aria-hidden="true" fill="currentColor"><path d="M20 7.125H9.875V5.25A2.625 2.625 0 0 1 12.5 2.625c1.267 0 2.405.902 2.648 2.1a1.125 1.125 0 1 0 2.204-.45c-.458-2.26-2.499-3.9-4.852-3.9A4.88 4.88 0 0 0 7.625 5.25v1.875H5A1.875 1.875 0 0 0 3.125 9v10.5A1.875 1.875 0 0 0 5 21.375h15a1.875 1.875 0 0 0 1.875-1.875V9A1.875 1.875 0 0 0 20 7.125m-.375 12H5.375v-9.75h14.25z"/></svg>
